images/menu-button-mobile.svg

<svg width="28" height="28" viewBox="0 0 28 28" fill="none" xmlns="http://www.w3.org/2000/svg">
<path fill-rule="evenodd" clip-rule="evenodd" d="M2.75 6C2.75 5.30964 3.30964 4.75 4 4.75H24C24.6904 4.75 25.25 5.30964 25.25 6C25.25 6.69036 24.6904 7.25 24 7.25H4C3.30964 7.25 2.75 6.69036 2.75 6Z" fill="white"/>
<path fill-rule="evenodd" clip-rule="evenodd" d="M2.75 14C2.75 13.3096 3.30964 12.75 4 12.75H24C24.6904 12.75 25.25 13.3096 25.25 14C25.25 14.6904 24.6904 15.25 24 15.25H4C3.30964 15.25 2.75 14.6904 2.75 14Z" fill="white"/>
<path fill-rule="evenodd" clip-rule="evenodd" d="M2.75 22C2.75 21.3096 3.30964 20.75 4 20.75H18C18.6904 20.75 19.25 21.3096 19.25 22C19.25 22.6904 18.6904 23.25 18 23.25H4C3.30964 23.25 2.75 22.6904 2.75 22Z" fill="white"/>
</svg>

<svg width="28" height="28" fill="none" xmlns="http://www.w3.org/2000/svg"><path fill-rule="evenodd" clip-rule="evenodd" d="M2.75 6c0-.69.56-1.25 1.25-1.25h20a1.25 1.25 0 1 1 0 2.5H4c-.69 0-1.25-.56-1.25-1.25zM2.75 14c0-.69.56-1.25 1.25-1.25h20a1.25 1.25 0 1 1 0 2.5H4c-.69 0-1.25-.56-1.25-1.25zM2.75 22c0-.69.56-1.25 1.25-1.25h14a1.25 1.25 0 1 1 0 2.5H4c-.69 0-1.25-.56-1.25-1.25z" fill="#fff"/></svg>
